Obsidian-SemiLight/actions/24s/view-preview.svg

<svg viewBox="0 0 24 24" xmlns="http://www.w3.org/2000/svg"><path d="m4 4v16h16v-16zm1 1h14v14h-14zm3.5 1c-1.385 0-2.5 1.115-2.5 2.5s1.115 2.5 2.5 2.5 2.5-1.115 2.5-2.5-1.115-2.5-2.5-2.5zm0 1c.831 0 1.5.669 1.5 1.5s-.669 1.5-1.5 1.5-1.5-.669-1.5-1.5.669-1.5 1.5-1.5zm6.494141 4-3.345703 3.34375-1.341797-1.34375-.00586.007812-.007812-.007812-4.292969 4.292969.7070312.707031 3.5917968-3.591797.642578.642578.707032.707031.707031-.707031 2.644531-2.644531 2.292969 2.292969.707031-.707031-2.992188-2.992188-.007812.007812z" fill="#4d4d4d"/></svg>

<svg xmlns="http://www.w3.org/2000/svg" viewBox="0 0 24 24">
  <defs id="defs3051">
    <style type="text/css" id="current-color-scheme">
      .ColorScheme-Text {
        color:#4d4d4d;
      }
      </style>
  </defs>
 <path style="fill:currentColor;fill-opacity:1;stroke:none" 
     d="M 4 4 L 4 20 L 20 20 L 20 4 L 4 4 z M 5 5 L 19 5 L 19 19 L 5 19 L 5 5 z M 8.5 6 C 7.115 6 6 7.115 6 8.5 C 6 9.885 7.115 11 8.5 11 C 9.885 11 11 9.885 11 8.5 C 11 7.115 9.885 6 8.5 6 z M 8.5 7 C 9.331 7 10 7.669 10 8.5 C 10 9.331 9.331 10 8.5 10 C 7.669 10 7 9.331 7 8.5 C 7 7.669 7.669 7 8.5 7 z M 14.994141 11 L 11.648438 14.34375 L 10.306641 13 L 10.300781 13.007812 L 10.292969 13 L 6 17.292969 L 6.7070312 18 L 10.298828 14.408203 L 10.941406 15.050781 L 11.648438 15.757812 L 12.355469 15.050781 L 15 12.40625 L 17.292969 14.699219 L 18 13.992188 L 15.007812 11 L 15 11.007812 L 14.994141 11 z "
     class="ColorScheme-Text"
     />
</svg>
